images/av-logo-red.svg

<svg width="520" height="311" viewBox="0 0 520 311" xmlns="http://www.w3.org/2000/svg"><g fill="#CF352C" fill-rule="evenodd"><path d="M479.341 146.955c11.06-1.807 14.163-10.259 12.343-21.582-1.866-11.304-7.481-18.382-18.54-16.577-11.204 1.784-16.488 10.608-14.658 21.917 1.831 11.333 9.636 18.024 20.855 16.242zM425.195 54.43l22.102-3.571 8.096 49.96.319-.053c3.8-8.082 11.952-12.107 21.123-13.583 20.417-3.289 33.658 14.324 37.045 35.26 3.712 22.812-5.346 40.809-26.707 44.249-9.976 1.601-19.696-3.348-23.867-8.262l-.308.047 1.618 9.929-20.407 3.282L425.195 54.43zM371.533 106.049l22.268-3.599 1.938 12.084.331-.041c3.175-9.897 4.974-14.649 14.797-16.246 2.49-.387 12.627 2.922 17.901 10.839l-6.662 15.239c-2.319-3.463-6.846-5.756-10.11-5.232-13.57 2.193-13.529 12.217-11.075 27.264l5.104 31.483-22.268 3.572-12.224-75.363M348.981 139.572c-1.114-7.764-6.996-13.504-15.106-12.19-9.647 1.554-11.931 9.068-11.23 16.428l26.336-4.238zm22.223 31.459c-6.117 9.729-13.499 16.487-25.018 18.328-22.277 3.606-39.127-9.605-43.019-33.654-3.909-24.042 7.904-41.851 30.192-45.436 20.696-3.337 33.508 10.513 37.416 34.57l1.165 7.294-46.712 7.525c3.146 8.549 8.45 13.59 16.999 12.219 7.161-1.16 15.467-4.096 19.453-9.184l9.524 8.338zM202.71 133.863l23.985-3.857 38.88 45.615.33-.062 9.476-54.047 22.258-3.579-16.117 79.946-23.508 3.783-55.304-67.799M180.328 201.74c-8.886-15.906-27.104-25.365-46.16-22.197-13.82 2.295-25.057 10.69-31.44 21.971 1.936-1.365 3.939-2.655 6.094-3.799 10.921-5.777 24.016-8.549 36.215-5.797 12.765 2.904 21.786 12.887 25.034 25.313 1.722 6.572 1.735 14.349-2.279 20.148-3.645 5.271-10.1 8.533-16.372 9.395-7.054.96-13.459-1.479-16.153-8.405-2.416-6.25.314-14.099 7.455-15.445-5.958.072-10.379 5.762-10.826 11.342-.442 5.582 2.182 11.584 6.608 15.019 9.387 7.27 24.871 3.989 33.491-2.799 13.52-10.638 14.242-29.359 8.333-44.746"/><path d="M156.62 269.242c-25.037 4.168-48.698-12.672-52.879-37.58-4.182-24.947 12.722-48.494 37.728-52.678 25.047-4.154 48.718 12.672 52.904 37.61 4.161 24.896-12.746 48.494-37.753 52.648zm25.088-132.011L89.81 152.505l-32.652 86.911L116.391 311l91.913-15.264 32.634-86.912-59.23-71.593zM334.297 20.288l21.329-3.414 1.656 10.213.32-.037c2-6.369 8.326-13.754 19.081-15.48 22.413-3.625 29.147 11.231 32.42 31.41l6.739 41.553-22.278 3.579-5.966-36.909c-1.432-8.695-3.403-19.844-14.751-18.011-11.549 1.86-11.724 11.606-10.126 21.367l6.079 37.535-22.258 3.604-12.245-75.41M297.367 84.492c11.063-1.778 14.796-10.346 12.951-21.659-1.81-11.314-8.065-18.284-19.134-16.497-11.24 1.802-14.926 10.358-13.116 21.677 1.841 11.335 8.084 18.289 19.299 16.479zm-9.492-58.64c22.118-3.556 40.674 9.385 44.556 33.402 3.918 24.044-9.6 42.167-31.729 45.727-22.279 3.579-40.996-9.342-44.895-33.369-3.902-24.037 9.778-42.177 32.068-45.76zM224.099.31c7.159-1.144 13.905 3.967 15.114 11.404 1.197 7.455-3.583 14.42-10.739 15.588-7.002 1.122-13.911-3.986-15.117-11.411-1.199-7.458 3.73-14.467 10.742-15.581zm-2.101 57.077l-5.422.873-3.028-18.722 27.529-4.429 12.33 76.033-22.1 3.564-9.309-57.319zM206.42 59.983l-19.618 3.152 6.632 40.832 24.818-4.002 2.669 16.502-46.947 7.568-9.307-57.341-14.17 2.274-3.03-18.599 14.182-2.291-3.609-22.339 22.139-3.558 3.596 22.352 19.634-3.186 3.011 18.636M137.27 74.144c-2.731-2.937-12.024-1.109-16.533-.373-11.226 1.81-16.49 10.621-14.675 21.935 1.834 11.314 9.643 18.032 20.855 16.207 4.817-.765 12.577-2.334 15.578-5.52l11.68 11.801c-5.8 8.578-15.519 12.85-23.925 14.208-22.284 3.589-42.554-9.081-46.467-33.128-3.901-24.029 11.351-42.418 33.613-45.997 8.443-1.348 18.984-.344 27.197 5.966l-7.323 14.901M56.032 103.864c-1.846-11.329-9.636-18.014-20.856-16.222-11.062 1.781-14.181 10.243-12.343 21.562 1.836 11.324 7.471 18.382 18.523 16.607 11.209-1.804 16.517-10.618 14.676-21.947zm26.513 34.43l-20.396 3.283-1.614-9.948-.325.048c-2.392 5.967-10.087 13.728-20.043 15.32C18.819 150.444 4.52 136.178.818 113.391c-3.39-20.938 3.599-41.806 24.018-45.08 9.175-1.489 18.183-.233 24.349 6.269l.319-.064-1.961-12.076 22.11-3.564 12.892 79.418z"/></g></svg>

<?xml version="1.0" encoding="UTF-8"?>
<svg width="520px" height="311px" viewBox="0 0 520 311" version="1.1" xmlns="http://www.w3.org/2000/svg" xmlns:xlink="http://www.w3.org/1999/xlink">
    <defs></defs>
    <g id="Page-1" stroke="none" stroke-width="1" fill="none" fill-rule="evenodd">
        <g id="Action-Verb-Logo" fill="#CF352C">
            <path d="M479.341,146.955 C490.401,145.148 493.504,136.696 491.684,125.373 C489.818,114.069 484.203,106.991 473.144,108.796 C461.94,110.58 456.656,119.404 458.486,130.713 C460.317,142.046 468.122,148.737 479.341,146.955 Z M425.195,54.43 L447.297,50.859 L455.393,100.819 L455.712,100.766 C459.512,92.684 467.664,88.659 476.835,87.183 C497.252,83.894 510.493,101.507 513.88,122.443 C517.592,145.255 508.534,163.252 487.173,166.692 C477.197,168.293 467.477,163.344 463.306,158.43 L462.998,158.477 L464.616,168.406 L444.209,171.688 L425.195,54.43 L425.195,54.43 Z" id="Fill-12"></path>
            <path d="M371.533,106.049 L393.801,102.45 L395.739,114.534 L396.07,114.493 C399.245,104.596 401.044,99.844 410.867,98.247 C413.357,97.86 423.494,101.169 428.768,109.086 L422.106,124.325 C419.787,120.862 415.26,118.569 411.996,119.093 C398.426,121.286 398.467,131.31 400.921,146.357 L406.025,177.84 L383.757,181.412 L371.533,106.049" id="Fill-10"></path>
            <path d="M348.981,139.572 C347.867,131.808 341.985,126.068 333.875,127.382 C324.228,128.936 321.944,136.45 322.645,143.81 L348.981,139.572 Z M371.204,171.031 C365.087,180.76 357.705,187.518 346.186,189.359 C323.909,192.965 307.059,179.754 303.167,155.705 C299.258,131.663 311.071,113.854 333.359,110.269 C354.055,106.932 366.867,120.782 370.775,144.839 L371.94,152.133 L325.228,159.658 C328.374,168.207 333.678,173.248 342.227,171.877 C349.388,170.717 357.694,167.781 361.68,162.693 L371.204,171.031 L371.204,171.031 Z" id="Fill-9"></path>
            <polyline id="Fill-8" points="202.71 133.863 226.695 130.006 265.575 175.621 265.905 175.559 275.381 121.512 297.639 117.933 281.522 197.879 258.014 201.662 202.71 133.863"></polyline>
            <path d="M180.328,201.74 C171.442,185.834 153.224,176.375 134.168,179.543 C120.348,181.838 109.111,190.233 102.728,201.514 C104.664,200.149 106.667,198.859 108.822,197.715 C119.743,191.938 132.838,189.166 145.037,191.918 C157.802,194.822 166.823,204.805 170.071,217.231 C171.793,223.803 171.806,231.58 167.792,237.379 C164.147,242.65 157.692,245.912 151.42,246.774 C144.366,247.734 137.961,245.295 135.267,238.369 C132.851,232.119 135.581,224.27 142.722,222.924 C136.764,222.996 132.343,228.686 131.896,234.266 C131.454,239.848 134.078,245.85 138.504,249.285 C147.891,256.555 163.375,253.274 171.995,246.486 C185.515,235.848 186.237,217.127 180.328,201.74" id="Fill-16"></path>
            <path d="M156.62,269.242 C131.583,273.41 107.922,256.57 103.741,231.662 C99.559,206.715 116.463,183.168 141.469,178.984 C166.516,174.83 190.187,191.656 194.373,216.594 C198.534,241.49 181.627,265.088 156.62,269.242 Z M181.708,137.231 L89.81,152.505 L57.158,239.416 L116.391,311 L208.304,295.736 L240.938,208.824 L181.708,137.231 L181.708,137.231 Z" id="Fill-14"></path>
            <path d="M334.297,20.288 L355.626,16.874 L357.282,27.087 L357.602,27.05 C359.602,20.681 365.928,13.296 376.683,11.57 C399.096,7.945 405.83,22.801 409.103,42.98 L415.842,84.533 L393.564,88.112 L387.598,51.203 C386.166,42.508 384.195,31.359 372.847,33.192 C361.298,35.052 361.123,44.798 362.721,54.559 L368.8,92.094 L346.542,95.698 L334.297,20.288" id="Fill-7"></path>
            <path d="M297.367,84.492 C308.43,82.714 312.163,74.146 310.318,62.833 C308.508,51.519 302.253,44.549 291.184,46.336 C279.944,48.138 276.258,56.694 278.068,68.013 C279.909,79.348 286.152,86.302 297.367,84.492 Z M287.875,25.852 C309.993,22.296 328.549,35.237 332.431,59.254 C336.349,83.298 322.831,101.421 300.702,104.981 C278.423,108.56 259.706,95.639 255.807,71.612 C251.905,47.575 265.585,29.435 287.875,25.852 L287.875,25.852 Z" id="Fill-6"></path>
            <path d="M224.099,0.31 C231.258,-0.834 238.004,4.277 239.213,11.714 C240.41,19.169 235.63,26.134 228.474,27.302 C221.472,28.424 214.563,23.316 213.357,15.891 C212.158,8.433 217.087,1.424 224.099,0.31 Z M221.998,57.387 L216.576,58.26 L213.548,39.538 L241.077,35.109 L253.407,111.142 L231.307,114.706 L221.998,57.387 L221.998,57.387 Z" id="Fill-4"></path>
            <polyline id="Fill-2" points="206.42 59.983 186.802 63.135 193.434 103.967 218.252 99.965 220.921 116.467 173.974 124.035 164.667 66.694 150.497 68.968 147.467 50.369 161.649 48.078 158.04 25.739 180.179 22.181 183.775 44.533 203.409 41.347 206.42 59.983"></polyline>
            <path d="M137.27,74.144 C134.539,71.207 125.246,73.035 120.737,73.771 C109.511,75.581 104.247,84.392 106.062,95.706 C107.896,107.02 115.705,113.738 126.917,111.913 C131.734,111.148 139.494,109.579 142.495,106.393 L154.175,118.194 C148.375,126.772 138.656,131.044 130.25,132.402 C107.966,135.991 87.696,123.321 83.783,99.274 C79.882,75.245 95.134,56.856 117.396,53.277 C125.839,51.929 136.38,52.933 144.593,59.243 L137.27,74.144" id="Fill-1"></path>
            <path d="M56.032,103.864 C54.186,92.535 46.396,85.85 35.176,87.642 C24.114,89.423 20.995,97.885 22.833,109.204 C24.669,120.528 30.304,127.586 41.356,125.811 C52.565,124.007 57.873,115.193 56.032,103.864 Z M82.545,138.294 L62.149,141.577 L60.535,131.629 L60.21,131.677 C57.818,137.644 50.123,145.405 40.167,146.997 C18.819,150.444 4.52,136.178 0.818,113.391 C-2.572,92.453 4.417,71.585 24.836,68.311 C34.011,66.822 43.019,68.078 49.185,74.58 L49.504,74.516 L47.543,62.44 L69.653,58.876 L82.545,138.294 L82.545,138.294 Z" id="Fill-13"></path>
        </g>
    </g>
</svg>
